**kern	**kern	**dynam
*part1	*part1	*part1
*staff2	*staff1	*
*I"Piano	*	*
*clefF4	*clefG2	*
*k[b-e-a-]	*k[b-e-a-]	*
=1	=1	=1
*	*^	*
8EE-	8r	8ryy	.
4G	8b-L 8ee-	4g	.
.	8e-J	.	.
(8BB-	8r	8ryy	.
=	=	=	=
8DD)	8r	8ryy	f
4F^	4b-^	8fL 8a-	.
.	.	8B-J	.
(8BB-	8r	8ryy	.
=	=	=	=
8EE-)	8r	8ryy	.
4G^	4b-^	8e-L 8g	.
.	.	8B-J	.
8BB-	8r	8ryy	.
*	*v	*v	*
=	=	=
8AA-L	8r	.
8A-^	8e-^ 8f 8a- 8cc	.
8BB-	8r	.
8B-^J	8d^ 8f 8a- 8b-	.
=	=	=
*	*^	*
8EE-	8r	8ryy	.
4G^	4b-^	8e-L 8g	.
.	.	8B-J	.
(8BB-	8r	8ryy	.
=	=	=	=
8DD)	8r	8ryy	.
4F^	4b-^	8fL 8a-	.
.	.	8B-J	.
(8BB-	8r	8ryy	.
=	=	=	=
8EE-)	8r	8ryy	.
4G^	4b-^	8e-L 8g	.
.	.	8B-J	.
8BB-	8r	8ryy	.
*	*v	*v	*
=	=	=
*-	*-	*-
!!!system-decoration: {(s1,s2)}
